static/assets/images/icons/copy.svg

<svg width="256" height="256" viewBox="0 0 256 256" fill="none" xmlns="http://www.w3.org/2000/svg">
<path fill-rule="evenodd" clip-rule="evenodd" d="M105 20C99.6957 20 94.6086 22.1071 90.8579 25.8579C87.1071 29.6086 85 34.6957 85 40V51.8848C85 54.537 86.0536 57.0805 87.9289 58.9559C89.8043 60.8312 92.3478 61.8848 95 61.8848C97.6522 61.8848 100.196 60.8312 102.071 58.9559C103.946 57.0805 105 54.537 105 51.8848V40H116.885C119.537 40 122.081 38.9464 123.956 37.0711C125.831 35.1957 126.885 32.6522 126.885 30C126.885 27.3478 125.831 24.8043 123.956 22.9289C122.081 21.0536 119.537 20 116.885 20H105ZM151.859 20C149.206 20 146.663 21.0536 144.788 22.9289C142.912 24.8043 141.859 27.3478 141.859 30C141.859 32.6522 142.912 35.1957 144.788 37.0711C146.663 38.9464 149.206 40 151.859 40H168.141C170.794 40 173.337 38.9464 175.212 37.0711C177.088 35.1957 178.141 32.6522 178.141 30C178.141 27.3478 177.088 24.8043 175.212 22.9289C173.337 21.0536 170.794 20 168.141 20H151.859ZM203.115 20C200.463 20 197.919 21.0536 196.044 22.9289C194.169 24.8043 193.115 27.3478 193.115 30C193.115 32.6522 194.169 35.1957 196.044 37.0711C197.919 38.9464 200.463 40 203.115 40H215V51.8848C215 54.537 216.054 57.0805 217.929 58.9559C219.804 60.8312 222.348 61.8848 225 61.8848C227.652 61.8848 230.196 60.8312 232.071 58.9559C233.946 57.0805 235 54.537 235 51.8848V40C235 34.6957 232.893 29.6086 229.142 25.8579C225.391 22.1071 220.304 20 215 20H203.115ZM235 86.8586C235 84.2065 233.946 81.6629 232.071 79.7876C230.196 77.9122 227.652 76.8586 225 76.8586C222.348 76.8586 219.804 77.9122 217.929 79.7876C216.054 81.6629 215 84.2065 215 86.8586V103.141C215 105.794 216.054 108.337 217.929 110.212C219.804 112.088 222.348 113.141 225 113.141C227.652 113.141 230.196 112.088 232.071 110.212C233.946 108.337 235 105.794 235 103.141V86.8586ZM235 138.115C235 135.463 233.946 132.919 232.071 131.044C230.196 129.169 227.652 128.115 225 128.115C222.348 128.115 219.804 129.169 217.929 131.044C216.054 132.919 215 135.463 215 138.115V150H203.115C200.463 150 197.919 151.054 196.044 152.929C194.169 154.804 193.115 157.348 193.115 160C193.115 162.652 194.169 165.196 196.044 167.071C197.919 168.946 200.463 170 203.115 170H215C220.304 170 225.391 167.893 229.142 164.142C232.893 160.391 235 155.304 235 150V138.115ZM55 70C49.6957 70 44.6086 72.1071 40.8579 75.8579C37.1071 79.6086 35 84.6957 35 90V200C35 205.304 37.1071 210.391 40.8579 214.142C44.6086 217.893 49.6957 220 55 220H165C170.304 220 175.391 217.893 179.142 214.142C182.893 210.391 185 205.304 185 200V90C185 84.6957 182.893 79.6086 179.142 75.8579C175.391 72.1071 170.304 70 165 70H55Z" fill="black"/>
</svg>

<svg xmlns="http://www.w3.org/2000/svg" fill="none" viewBox="0 0 256 256"><path fill="#000" fill-rule="evenodd" d="M105 20a20 20 0 0 0-20 20v11.885a10 10 0 0 0 20 0V40h11.885a10 10 0 1 0 0-20zm46.859 0a10 10 0 0 0-10 10 9.997 9.997 0 0 0 10 10h16.282a10 10 0 0 0 10-10 9.997 9.997 0 0 0-10-10zm51.256 0a10 10 0 1 0 0 20H215v11.885a10.002 10.002 0 0 0 17.071 7.07 10 10 0 0 0 2.929-7.07V40a20 20 0 0 0-20-20zM235 86.859a10.001 10.001 0 0 0-17.071-7.071 10 10 0 0 0-2.929 7.07v16.283a10 10 0 1 0 20 0zm0 51.256a10.001 10.001 0 0 0-20 0V150h-11.885a10.001 10.001 0 0 0 0 20H215a20 20 0 0 0 20-20zM55 70a20 20 0 0 0-20 20v110a20 20 0 0 0 20 20h110a20 20 0 0 0 20-20V90a20 20 0 0 0-20-20z" clip-rule="evenodd"/></svg>
